Newaita-dark/.places-mint/32/folder-drag-accept.svg

<?xml version="1.0" encoding="UTF-8"?>
<svg xmlns="http://www.w3.org/2000/svg" xmlns:xlink="http://www.w3.org/1999/xlink" width="32px" height="32px" viewBox="0 0 32 32" version="1.1">
<defs>
<linearGradient id="linear0" gradientUnits="userSpaceOnUse" x1="254" y1="233.5" x2="254" y2="254.666672" gradientTransform="matrix(0.062506,0,0,0.062506,-0.00000381506,13.438785)">
<stop offset="0" style="stop-color:rgb(0%,0%,0%);stop-opacity:0.27451;"/>
<stop offset="1" style="stop-color:rgb(0%,0%,0%);stop-opacity:0;"/>
</linearGradient>
<radialGradient id="radial0" gradientUnits="userSpaceOnUse" cx="450.908936" cy="189.579361" fx="450.908936" fy="189.579361" r="21.166656" gradientTransform="matrix(0.00000017417,-0.0781325,-0.140638,-0.000000101539,54.115213,63.595333)">
<stop offset="0" style="stop-color:rgb(0%,0%,0%);stop-opacity:0.313726;"/>
<stop offset="0.222222" style="stop-color:rgb(0%,0%,0%);stop-opacity:0.27451;"/>
<stop offset="1" style="stop-color:rgb(0%,0%,0%);stop-opacity:0;"/>
</radialGradient>
<radialGradient id="radial1" gradientUnits="userSpaceOnUse" cx="450.908936" cy="189.579361" fx="450.908936" fy="189.579361" r="21.166656" gradientTransform="matrix(-0.00000017417,0.0781325,0.140638,0.000000101539,-22.362178,-7.527479)">
<stop offset="0" style="stop-color:rgb(0%,0%,0%);stop-opacity:0.313726;"/>
<stop offset="0.222222" style="stop-color:rgb(0%,0%,0%);stop-opacity:0.27451;"/>
<stop offset="1" style="stop-color:rgb(0%,0%,0%);stop-opacity:0;"/>
</radialGradient>
<radialGradient id="radial2" gradientUnits="userSpaceOnUse" cx="450.908936" cy="189.579361" fx="450.908936" fy="189.579361" r="21.166656" gradientTransform="matrix(-0.00000017417,-0.0781325,0.140638,-0.000000101539,-22.362178,63.595333)">
<stop offset="0" style="stop-color:rgb(0%,0%,0%);stop-opacity:0.313726;"/>
<stop offset="0.222222" style="stop-color:rgb(0%,0%,0%);stop-opacity:0.27451;"/>
<stop offset="1" style="stop-color:rgb(0%,0%,0%);stop-opacity:0;"/>
</radialGradient>
<radialGradient id="radial3" gradientUnits="userSpaceOnUse" cx="450.908936" cy="189.579361" fx="450.908936" fy="189.579361" r="21.166656" gradientTransform="matrix(0.00000017417,0.0781325,-0.140638,0.000000101539,54.115211,-7.527479)">
<stop offset="0" style="stop-color:rgb(0%,0%,0%);stop-opacity:0.313726;"/>
<stop offset="0.222222" style="stop-color:rgb(0%,0%,0%);stop-opacity:0.27451;"/>
<stop offset="1" style="stop-color:rgb(0%,0%,0%);stop-opacity:0;"/>
</radialGradient>
<linearGradient id="linear1" gradientUnits="userSpaceOnUse" x1="960" y1="255.118118" x2="960" y2="1215.118164" gradientTransform="matrix(0.016538,0,0,0.016538,0,0)">
<stop offset="0" style="stop-color:rgb(34.509805%,34.509805%,34.509805%);stop-opacity:0;"/>
<stop offset="1" style="stop-color:rgb(98.039216%,98.039216%,98.039216%);stop-opacity:0.196078;"/>
</linearGradient>
<linearGradient id="linear2" gradientUnits="userSpaceOnUse" x1="960" y1="1695.118164" x2="960" y2="855.118103" gradientTransform="matrix(0.016538,0,0,0.016538,0,0)">
<stop offset="0" style="stop-color:rgb(34.509805%,34.509805%,34.509805%);stop-opacity:0;"/>
<stop offset="1" style="stop-color:rgb(98.039216%,98.039216%,98.039216%);stop-opacity:0.196078;"/>
</linearGradient>
</defs>
<g id="surface1">
<path style=" stroke:none;fill-rule:nonzero;fill:url(#linear0);" d="M 3.96875 28.035156 L 27.785156 28.035156 L 27.785156 29.355469 L 3.96875 29.355469 Z M 3.96875 28.035156 "/>
<path style=" stroke:none;fill-rule:nonzero;fill:url(#radial0);" d="M 27.785156 28.035156 L 30.429688 28.035156 L 30.429688 26.710938 L 27.785156 26.710938 Z M 27.785156 28.035156 "/>
<path style=" stroke:none;fill-rule:nonzero;fill:url(#radial1);" d="M 3.96875 28.035156 L 1.324219 28.035156 L 1.324219 29.355469 L 3.96875 29.355469 Z M 3.96875 28.035156 "/>
<path style=" stroke:none;fill-rule:nonzero;fill:url(#radial2);" d="M 3.96875 28.035156 L 1.324219 28.035156 L 1.324219 26.710938 L 3.96875 26.710938 Z M 3.96875 28.035156 "/>
<path style=" stroke:none;fill-rule:nonzero;fill:url(#radial3);" d="M 27.785156 28.035156 L 30.429688 28.035156 L 30.429688 29.355469 L 27.785156 29.355469 Z M 27.785156 28.035156 "/>
<path style=" stroke:none;fill-rule:nonzero;fill:rgb(61.176473%,80.000001%,39.607844%);fill-opacity:1;" d="M 7.277344 4.21875 C 6.542969 4.21875 5.953125 4.808594 5.953125 5.542969 L 5.953125 6.863281 L 2.644531 6.863281 C 1.914062 6.863281 1.324219 7.457031 1.324219 8.1875 L 1.324219 18.773438 C 1.324219 19.503906 1.914062 20.09375 2.644531 20.09375 L 29.105469 20.09375 C 29.839844 20.09375 30.429688 19.503906 30.429688 18.773438 L 30.429688 8.1875 C 30.429688 7.851562 30.304688 7.546875 30.097656 7.3125 L 30.097656 5.542969 C 30.097656 4.808594 29.507812 4.21875 28.777344 4.21875 Z M 7.277344 4.21875 "/>
<path style=" stroke:none;fill-rule:nonzero;fill:url(#linear1);" d="M 7.277344 4.21875 C 6.542969 4.21875 5.953125 4.808594 5.953125 5.542969 L 5.953125 6.863281 L 2.644531 6.863281 C 1.914062 6.863281 1.324219 7.457031 1.324219 8.1875 L 1.324219 18.773438 C 1.324219 19.503906 1.914062 20.09375 2.644531 20.09375 L 29.105469 20.09375 C 29.839844 20.09375 30.429688 19.503906 30.429688 18.773438 L 30.429688 8.1875 C 30.429688 7.851562 30.304688 7.546875 30.097656 7.3125 L 30.097656 5.542969 C 30.097656 4.808594 29.507812 4.21875 28.777344 4.21875 Z M 7.277344 4.21875 "/>
<path style=" stroke:none;fill-rule:nonzero;fill:rgb(90.196079%,90.196079%,90.196079%);fill-opacity:0.392157;" d="M 7.277344 4.300781 C 6.542969 4.300781 5.953125 4.890625 5.953125 5.625 L 5.953125 5.789062 C 5.953125 5.058594 6.542969 4.46875 7.277344 4.46875 L 28.777344 4.46875 C 29.507812 4.46875 30.097656 5.058594 30.097656 5.789062 L 30.097656 5.625 C 30.097656 4.890625 29.507812 4.300781 28.777344 4.300781 Z M 7.277344 4.300781 "/>
<path style=" stroke:none;fill-rule:nonzero;fill:rgb(12.941177%,12.941177%,12.941177%);fill-opacity:1;" d="M 7.277344 4.125 C 6.492188 4.125 5.859375 4.757812 5.859375 5.542969 L 5.859375 6.769531 L 2.644531 6.769531 C 1.863281 6.769531 1.230469 7.40625 1.230469 8.1875 L 1.230469 18.773438 C 1.230469 19.554688 1.863281 20.1875 2.644531 20.1875 L 29.105469 20.1875 C 29.890625 20.1875 30.523438 19.554688 30.523438 18.773438 L 30.523438 8.1875 C 30.523438 7.839844 30.398438 7.523438 30.191406 7.277344 L 30.191406 5.542969 C 30.191406 4.757812 29.558594 4.125 28.777344 4.125 Z M 7.277344 4.3125 L 28.777344 4.3125 C 29.457031 4.3125 30.003906 4.859375 30.003906 5.542969 L 30.003906 7.347656 L 30.027344 7.375 C 30.21875 7.589844 30.335938 7.875 30.335938 8.1875 L 30.335938 18.773438 C 30.335938 19.457031 29.789062 20 29.105469 20 L 2.644531 20 C 1.964844 20 1.417969 19.457031 1.417969 18.773438 L 1.417969 8.1875 C 1.417969 7.503906 1.964844 6.960938 2.644531 6.960938 L 6.046875 6.960938 L 6.046875 5.542969 C 6.046875 4.859375 6.59375 4.3125 7.277344 4.3125 Z M 7.277344 4.3125 "/>
<path style=" stroke:none;fill-rule:nonzero;fill:rgb(68.235296%,83.529413%,50.588238%);fill-opacity:1;" d="M 2.644531 12.820312 C 1.914062 12.820312 1.324219 13.410156 1.324219 14.140625 L 1.324219 26.710938 C 1.324219 27.445312 1.914062 28.035156 2.644531 28.035156 L 29.105469 28.035156 C 29.839844 28.035156 30.429688 27.445312 30.429688 26.710938 L 30.429688 14.140625 L 12.570312 14.140625 C 11.835938 14.140625 11.246094 13.550781 11.246094 12.820312 Z M 2.644531 12.820312 "/>
<path style=" stroke:none;fill-rule:nonzero;fill:rgb(0%,0%,0%);fill-opacity:0.196078;" d="M 2.644531 28.035156 C 1.914062 28.035156 1.324219 27.445312 1.324219 26.710938 L 1.324219 26.546875 C 1.324219 27.277344 1.914062 27.867188 2.644531 27.867188 L 29.105469 27.867188 C 29.839844 27.867188 30.429688 27.277344 30.429688 26.546875 L 30.429688 26.710938 C 30.429688 27.445312 29.839844 28.035156 29.105469 28.035156 Z M 2.644531 28.035156 "/>
<path style=" stroke:none;fill-rule:nonzero;fill:url(#linear2);" d="M 2.644531 12.820312 C 1.914062 12.820312 1.324219 13.410156 1.324219 14.140625 L 1.324219 26.710938 C 1.324219 27.445312 1.914062 28.035156 2.644531 28.035156 L 29.105469 28.035156 C 29.839844 28.035156 30.429688 27.445312 30.429688 26.710938 L 30.429688 14.140625 L 12.570312 14.140625 C 11.835938 14.140625 11.246094 13.550781 11.246094 12.820312 Z M 2.644531 12.820312 "/>
<path style=" stroke:none;fill-rule:nonzero;fill:rgb(90.196079%,90.196079%,90.196079%);fill-opacity:0.392157;" d="M 12.570312 14.390625 C 11.835938 14.390625 11.246094 13.800781 11.246094 13.066406 L 11.246094 12.902344 C 11.246094 13.632812 11.835938 14.226562 12.570312 14.226562 L 30.511719 14.226562 L 30.511719 14.390625 Z M 12.570312 14.390625 "/>
<path style=" stroke:none;fill-rule:nonzero;fill:rgb(90.196079%,90.196079%,90.196079%);fill-opacity:0.392157;" d="M 2.644531 12.902344 C 1.914062 12.902344 1.324219 13.492188 1.324219 14.226562 L 1.324219 14.390625 C 1.324219 13.65625 1.914062 13.066406 2.644531 13.066406 L 11.246094 13.066406 L 11.246094 12.902344 Z M 2.644531 12.902344 "/>
<path style=" stroke:none;fill-rule:nonzero;fill:rgb(12.941177%,12.941177%,12.941177%);fill-opacity:1;" d="M 2.644531 12.726562 C 1.863281 12.726562 1.230469 13.359375 1.230469 14.140625 L 1.230469 26.710938 C 1.230469 27.496094 1.863281 28.128906 2.644531 28.128906 L 29.105469 28.128906 C 29.890625 28.128906 30.523438 27.496094 30.523438 26.710938 L 30.523438 14.046875 L 12.570312 14.046875 C 11.886719 14.046875 11.339844 13.5 11.339844 12.820312 L 11.339844 12.726562 Z M 2.644531 12.914062 L 11.15625 12.914062 C 11.207031 13.652344 11.816406 14.234375 12.570312 14.234375 L 30.335938 14.234375 L 30.335938 26.710938 C 30.335938 27.394531 29.789062 27.941406 29.105469 27.941406 L 2.644531 27.941406 C 1.964844 27.941406 1.417969 27.394531 1.417969 26.710938 L 1.417969 14.140625 C 1.417969 13.460938 1.964844 12.914062 2.644531 12.914062 Z M 2.644531 12.914062 "/>
</g>
</svg>

<svg xmlns="http://www.w3.org/2000/svg" width="32" height="32"><defs><linearGradient id="a" gradientUnits="userSpaceOnUse" x1="254" y1="233.5" x2="254" y2="254.667" gradientTransform="matrix(.0625 0 0 .0625 0 13.439)"><stop offset="0" stop-opacity=".275"/><stop offset="1" stop-opacity="0"/></linearGradient><radialGradient id="b" gradientUnits="userSpaceOnUse" cx="450.909" cy="189.579" fx="450.909" fy="189.579" r="21.167" gradientTransform="matrix(0 -.07813 -.14064 0 54.115 63.595)"><stop offset="0" stop-opacity=".314"/><stop offset=".222" stop-opacity=".275"/><stop offset="1" stop-opacity="0"/></radialGradient><radialGradient id="c" gradientUnits="userSpaceOnUse" cx="450.909" cy="189.579" fx="450.909" fy="189.579" r="21.167" gradientTransform="matrix(0 .07813 .14064 0 -22.362 -7.527)"><stop offset="0" stop-opacity=".314"/><stop offset=".222" stop-opacity=".275"/><stop offset="1" stop-opacity="0"/></radialGradient><radialGradient id="d" gradientUnits="userSpaceOnUse" cx="450.909" cy="189.579" fx="450.909" fy="189.579" r="21.167" gradientTransform="matrix(0 -.07813 .14064 0 -22.362 63.595)"><stop offset="0" stop-opacity=".314"/><stop offset=".222" stop-opacity=".275"/><stop offset="1" stop-opacity="0"/></radialGradient><radialGradient id="e" gradientUnits="userSpaceOnUse" cx="450.909" cy="189.579" fx="450.909" fy="189.579" r="21.167" gradientTransform="matrix(0 .07813 -.14064 0 54.115 -7.527)"><stop offset="0" stop-opacity=".314"/><stop offset=".222" stop-opacity=".275"/><stop offset="1" stop-opacity="0"/></radialGradient><linearGradient id="f" gradientUnits="userSpaceOnUse" x1="960" y1="255.118" x2="960" y2="1215.118" gradientTransform="rotate(.891) scale(.01654)"><stop offset="0" stop-color="#585858" stop-opacity="0"/><stop offset="1" stop-color="#fafafa" stop-opacity=".196"/></linearGradient><linearGradient id="g" gradientUnits="userSpaceOnUse" x1="960" y1="1695.118" x2="960" y2="855.118" gradientTransform="rotate(.891) scale(.01654)"><stop offset="0" stop-color="#585858" stop-opacity="0"/><stop offset="1" stop-color="#fafafa" stop-opacity=".196"/></linearGradient></defs><path d="M3.969 28.035h23.816v1.32H3.97zm0 0" fill="url(#a)"/><path d="M27.785 28.035h2.645v-1.324h-2.645zm0 0" fill="url(#b)"/><path d="M3.969 28.035H1.324v1.32H3.97zm0 0" fill="url(#c)"/><path d="M3.969 28.035H1.324v-1.324H3.97zm0 0" fill="url(#d)"/><path d="M27.785 28.035h2.645v1.32h-2.645zm0 0" fill="url(#e)"/><path d="M7.277 4.219a1.32 1.32 0 0 0-1.324 1.324v1.32H2.645c-.73 0-1.32.594-1.32 1.324v10.586c0 .73.59 1.32 1.32 1.32h26.46a1.32 1.32 0 0 0 1.325-1.32V8.188c0-.336-.125-.641-.332-.876V5.543a1.32 1.32 0 0 0-1.32-1.324zm0 0" fill="#7cb342"/><path d="M7.277 4.219a1.32 1.32 0 0 0-1.324 1.324v1.32H2.645c-.73 0-1.32.594-1.32 1.324v10.586c0 .73.59 1.32 1.32 1.32h26.46a1.32 1.32 0 0 0 1.325-1.32V8.188c0-.336-.125-.641-.332-.876V5.543a1.32 1.32 0 0 0-1.32-1.324zm0 0" fill="url(#f)"/><path d="M7.277 4.219a1.32 1.32 0 0 0-1.324 1.324v.164c0-.734.59-1.324 1.324-1.324h21.5c.73 0 1.32.59 1.32 1.324v-.164a1.32 1.32 0 0 0-1.32-1.324zm0 0" fill="#e6e6e6" fill-opacity=".588"/><path d="M7.277 4.125c-.785 0-1.418.633-1.418 1.418V6.77H2.645c-.782 0-1.415.636-1.415 1.418v10.585c0 .782.633 1.415 1.415 1.415h26.46c.786 0 1.418-.633 1.418-1.415V8.188c0-.348-.125-.665-.332-.91V5.542c0-.785-.632-1.418-1.414-1.418zm0 .188h21.5c.68 0 1.227.546 1.227 1.23v1.805l.023.027c.192.215.309.5.309.813v10.585c0 .684-.547 1.227-1.23 1.227H2.644c-.68 0-1.227-.543-1.227-1.227V8.188c0-.684.547-1.227 1.227-1.227h3.402V5.543c0-.684.547-1.23 1.23-1.23zm0 0" fill="#212121"/><path d="M2.645 12.82c-.73 0-1.32.59-1.32 1.32v12.57c0 .735.59 1.325 1.32 1.325h26.46a1.32 1.32 0 0 0 1.325-1.324V14.14H12.57a1.32 1.32 0 0 1-1.324-1.32zm0 0" fill="#9ccc65"/><path d="M2.645 28.035c-.73 0-1.32-.59-1.32-1.324v-.164c0 .73.59 1.32 1.32 1.32h26.46a1.32 1.32 0 0 0 1.325-1.32v.164a1.32 1.32 0 0 1-1.325 1.324zm0 0" fill-opacity=".196"/><path d="M2.645 12.82c-.73 0-1.32.59-1.32 1.32v.169c0-.735.59-1.325 1.32-1.325h8.601v-.164zm0 0" fill="#e6e6e6" fill-opacity=".937"/><path d="M12.57 14.309a1.32 1.32 0 0 1-1.324-1.325v-.164c0 .73.59 1.325 1.324 1.32h17.942v.169zm0 0" fill="#e6e6e6" fill-opacity=".937"/><path d="M2.645 12.82c-.73 0-1.32.59-1.32 1.32v12.57c0 .735.59 1.325 1.32 1.325h26.46a1.32 1.32 0 0 0 1.325-1.324V14.14H12.57a1.32 1.32 0 0 1-1.324-1.32zm0 0" fill="url(#g)"/><path d="M2.645 12.727c-.782 0-1.415.632-1.415 1.414v12.57c0 .785.633 1.418 1.415 1.418h26.46c.786 0 1.418-.633 1.418-1.418V14.047H12.57c-.683 0-1.23-.547-1.23-1.227v-.093zm0 .187h8.511c.051.738.66 1.32 1.414 1.32h17.766v12.477c0 .684-.547 1.23-1.23 1.23H2.644c-.68 0-1.227-.546-1.227-1.23V14.14c0-.68.547-1.227 1.227-1.227zm0 0" fill="#212121"/></svg>
